X:64
M:2/4
L:1/8
K:D
|: ggff | gg f2 | fe/d/ cd | (e/d/c/B/) A2 | AB/c/ dd | fd f2 | af (a/g/f/e/) | d2 D2 :|

